X:14
T:El Humahuaque\~no
R:waynu
O:Argentina
Z:id:hn-waynu-14
M:2/4
L:1/8
Q:1/4=90
K:Em
B | ee/ee/e | g3 f/e/ | dd/dc/e | d3 :|
|: z | BB/BA/d | BB/BA/d | BB/BA/G | E3 :|
|: z | e/ef/ g2 | ^c/cd/ ed | B3 :|
|: z | BB/BA/d | BB/BA/d | BB/BA/G | E3 :|

